img/logo/logo-simple.svg

<svg width="64" height="64" viewBox="0 0 64 64" fill="none" xmlns="http://www.w3.org/2000/svg">
<circle cx="32" cy="32" r="32" fill="white"/>
<path d="M29.593 42.2822L45.5757 42.3736C47.2778 49.9436 41.2168 58.13 33.5368 59.2613C25.8568 60.3925 17.9547 54.8318 15.8583 47.3593C13.7618 39.8869 17.2407 31.3766 23.6338 26.9783" fill="#B2DDDE"/>
<path d="M33.9256 35.2869C37.4784 34.8522 40.8592 33.5089 43.7415 31.3867C45.9189 29.7926 47.9053 27.6214 48.5612 24.8172C49.2171 22.0129 48.1315 18.5403 45.6739 17.4091C44.221 16.7366 42.577 16.9649 41.0306 17.2015L29.1993 19.024C26.804 19.3934 23.9458 19.5803 22.3496 17.5191C20.3984 14.9951 21.922 11.0845 24.0931 8.90298C26.781 6.17853 30.437 4.62733 34.2639 4.58765" fill="#FFDB55"/>
</svg>

<?xml version="1.0" encoding="utf-8"?>
<!-- Generator: Adobe Illustrator 24.2.1, SVG Export Plug-In . SVG Version: 6.00 Build 0)  -->
<svg version="1.1" id="Layer_1" xmlns="http://www.w3.org/2000/svg" xmlns:xlink="http://www.w3.org/1999/xlink" x="0px" y="0px"
	 viewBox="0 0 64 64" style="enable-background:new 0 0 64 64;" xml:space="preserve">
<style type="text/css">
	.st0{fill:#FFFFFF;}
	.st1{fill:#B2DDDE;}
	.st2{fill:#FFDB55;}
</style>
<circle class="st0" cx="32" cy="32" r="32"/>
<path class="st1" d="M29.6,42.3l16,0.1c1.7,7.6-4.4,15.8-12,16.9c-7.7,1.1-15.6-4.4-17.7-11.9c-2.1-7.5,1.4-16,7.8-20.4"/>
<path class="st2" d="M33.9,35.3c3.6-0.4,6.9-1.8,9.8-3.9c2.2-1.6,4.2-3.8,4.8-6.6c0.7-2.8-0.4-6.3-2.9-7.4c-1.5-0.7-3.1-0.4-4.6-0.2
	L29.2,19c-2.4,0.4-5.3,0.6-6.8-1.5c-2-2.5-0.4-6.4,1.7-8.6c2.7-2.7,6.3-4.3,10.2-4.3"/>
</svg>
